X: 2
T: Dinny Delaney's
R: slide
M: 12/8
L: 1/8
K: Emix
B2E E3 B2A FGA|B2E E3 A2B AFE|B2E E3 d2e f2e|edB BAF A2B AFE:|
|:edB BAF d3 Bcd|edB BAF A2B AFE|edB BAF d2e f2e|edB BAF A2B AFE:|
|:B2E E3 B2c A2c|B2c A2B F3 AFE|B2E E3 d2e f2e|edB BAF A2B AFE:|
|:edB BAF d3 Bcd|edB BAF A2B AFE|edB BAF d2e f2e|edB BAF A2B AFE:|


Tune 185	Setting 25505

